src/image/icon-deco.svg

<svg width="492" height="137" viewBox="0 0 492 137" fill="none" xmlns="http://www.w3.org/2000/svg">
<path d="M487.847 61.9037L467.551 86.7667C471.61 94.3778 476.177 101.481 480.743 108.078C483.788 112.137 484.802 117.719 483.28 122.793V123.3C481.251 130.404 475.162 135.985 467.551 136.493C462.984 137 458.417 137 453.851 137C449.284 137 444.717 137 440.151 136.493C435.584 135.985 432.032 133.956 428.988 130.911C425.943 133.956 422.391 135.985 417.825 136.493C413.765 137 408.691 137 404.125 137C399.051 137 394.484 137 390.425 136.493C387.888 135.985 385.858 135.478 383.828 134.463C378.247 135.985 372.158 136.493 366.069 136.493C352.877 136.493 343.743 132.941 336.639 128.374C330.551 133.448 322.939 136.493 314.314 136.493C303.658 136.493 297.062 131.926 293.002 128.374C283.869 133.448 272.706 136.493 261.543 136.493C250.38 136.493 240.232 133.448 232.621 128.374C231.099 129.389 229.576 130.404 228.054 130.911C220.443 134.463 210.295 136.493 200.654 136.493C184.925 136.493 174.776 131.419 168.18 125.837C167.165 126.852 165.643 127.867 164.121 128.881C150.421 135.985 135.706 136.493 129.617 136.493C107.291 136.493 96.1283 126.852 90.0394 118.733C89.532 118.226 89.0246 117.719 89.0246 116.704C78.8765 128.881 65.6839 136.493 46.4024 136.493C29.1506 136.493 15.4506 129.896 7.33204 118.733C-1.29389 106.048 -2.3087 88.7963 4.28759 70.5296C13.4209 46.6815 35.2394 31.4593 61.6246 31.4593C61.6246 31.4593 62.132 31.4593 62.6395 31.4593C62.6395 30.9519 62.6395 29.937 62.6395 29.4296C62.132 21.3111 67.7135 13.7 75.832 10.6556L99.6802 1.52222C102.217 0.507407 104.754 0 107.291 0C114.902 0 122.006 4.05926 125.558 11.163L135.706 31.9667C138.751 31.4593 141.795 31.4593 144.839 31.4593C159.047 31.4593 171.225 36.5333 178.836 45.6667C190.506 36.5333 205.221 31.4593 221.458 31.4593C230.084 31.4593 237.695 32.9815 244.291 36.0259C245.306 36.5333 246.828 37.5481 247.843 38.563C256.976 33.9963 267.125 31.4593 277.78 31.4593C294.525 31.4593 308.732 38.0555 316.851 49.7259C320.91 55.8148 323.447 62.4111 324.462 70.0222C334.61 46.6815 358.458 31.4593 385.858 31.4593C391.947 31.4593 398.543 32.4741 403.617 33.9963C404.632 33.4889 405.647 33.4889 407.169 33.4889C411.228 32.4741 415.288 32.4741 419.347 32.4741C423.406 32.4741 427.973 32.4741 432.032 32.9815C435.584 33.4889 438.628 34.5037 441.165 36.5333C443.702 34.5037 446.747 32.9815 450.299 32.9815C454.358 32.4741 458.925 32.4741 463.491 32.4741C468.058 32.4741 472.117 32.4741 476.176 33.4889C482.773 34.5037 487.847 38.563 490.384 44.6518C492.921 50.2333 491.906 56.8296 487.847 61.9037Z" fill="#113032"/>
<path d="M446.234 84.2308C452.323 96.916 459.427 108.079 466.023 117.72V118.227C457.905 118.734 449.786 118.734 442.175 118.227C438.623 113.153 435.071 105.542 432.027 97.9308L416.297 118.227C408.686 118.734 399.553 118.734 392.449 118.227L421.879 82.7086C416.805 73.5752 411.731 63.9345 408.686 50.2345C415.79 49.7271 422.893 49.7271 429.997 50.2345C432.027 56.8308 434.056 63.9345 436.593 70.5308L452.323 50.2345C459.427 49.2197 467.545 49.2197 474.142 50.2345L446.234 84.2308ZM116.419 41.6086C118.449 42.116 119.971 41.1012 118.956 39.0715L109.316 19.2826C108.808 17.7604 106.779 17.7604 105.764 18.2678L81.4083 27.4012C79.3787 27.9086 79.3787 29.9382 81.4083 30.4456L89.0194 32.4752C82.9305 45.6678 75.8268 65.9641 69.7379 78.6493C63.1416 92.8567 59.5898 102.497 48.4268 102.497C37.2638 102.497 35.2342 93.8715 40.3083 81.1863C45.8898 66.4715 55.0231 62.4123 65.6787 65.4567C68.7231 61.3975 70.7527 55.3086 71.7675 49.7271C68.7231 48.7123 65.1712 48.7123 62.1268 48.7123C44.8749 48.7123 28.1305 57.3382 21.5342 76.1123C11.8935 99.9604 20.012 118.734 46.3972 118.734C65.6787 118.734 76.3342 110.109 89.0194 83.216C96.1231 68.5012 101.705 53.7863 108.808 39.5789L116.419 41.6086ZM167.16 74.59C162.593 86.7678 147.879 91.8419 119.971 91.3345C119.971 99.453 125.553 103.005 135.701 103.005C142.805 103.005 150.416 101.483 155.49 98.4382C157.012 103.512 157.012 108.079 155.997 112.646C147.371 117.212 137.223 118.227 129.612 118.227C100.69 118.227 96.6305 96.4086 102.719 79.6641C108.301 63.4271 123.523 48.7123 144.327 48.7123C164.116 49.2197 172.234 61.9049 167.16 74.59ZM141.282 63.4271C133.164 63.4271 127.075 68.5012 123.523 77.1271C140.775 77.1271 146.864 74.59 148.386 70.5308C149.401 67.4863 148.386 63.4271 141.282 63.4271ZM220.438 65.4567C223.99 65.4567 227.542 65.9641 229.571 67.4863C233.123 62.4123 235.66 57.3382 235.66 52.2641C232.616 50.7419 227.034 49.7271 220.438 49.7271C198.112 49.7271 180.353 62.9197 173.756 81.1863C167.668 98.4382 172.234 119.749 200.649 119.749C208.26 119.749 215.871 118.227 220.945 115.69C222.468 110.616 222.975 105.542 221.453 100.468C217.901 101.99 212.827 103.512 207.245 103.512C193.038 103.512 191.516 92.8567 194.56 83.7234C198.112 73.0678 206.738 65.4567 220.438 65.4567ZM319.382 95.3937C310.756 95.3937 306.19 100.975 304.16 106.049C302.131 112.138 304.668 119.242 314.308 119.242C322.427 119.242 327.501 114.168 329.531 109.094C331.56 102.497 329.531 95.3937 319.382 95.3937ZM304.668 89.3049C297.564 108.079 280.819 118.734 261.538 118.734C235.66 118.734 228.049 98.4382 234.645 79.1567C240.734 61.9049 256.464 49.2197 277.268 49.2197C303.653 49.2197 311.771 69.0086 304.668 89.3049ZM274.731 64.9493C265.09 64.9493 258.493 73.5752 255.956 82.2012C252.405 92.8567 254.434 103.512 265.09 103.512C274.223 103.512 280.819 95.3938 283.864 86.7678C286.908 76.1123 285.893 64.9493 274.731 64.9493ZM372.66 102.497C358.453 102.497 356.931 91.8419 359.975 82.7086C363.527 73.0678 372.153 65.4567 385.853 65.4567C389.405 65.4567 392.956 65.9641 394.986 67.4863C398.538 62.4123 401.075 57.3382 401.075 52.2641C398.031 50.7419 392.449 49.7271 385.853 49.7271C363.527 49.7271 345.768 62.9197 339.171 81.1863C333.082 98.4382 337.649 119.749 366.064 119.749C373.675 119.749 381.286 118.227 386.36 115.69C387.882 110.616 388.39 105.542 386.868 100.468C383.316 100.975 378.242 102.497 372.66 102.497Z" fill="#02F67C"/>
</svg>

<svg xmlns="http://www.w3.org/2000/svg" width="492" height="137" fill="none" xmlns:v="https://vecta.io/nano"><path d="M487.847 61.904l-20.296 24.863c4.059 7.611 8.626 14.714 13.192 21.311 3.045 4.059 4.059 9.641 2.537 14.715v.507c-2.029 7.104-8.118 12.685-15.729 13.193-4.567.507-9.134.507-13.7.507s-9.134 0-13.7-.507-8.119-2.537-11.163-5.582c-3.045 3.045-6.597 5.074-11.163 5.582-4.06.507-9.134.507-13.7.507-5.074 0-9.641 0-13.7-.507-2.537-.508-4.567-1.015-6.597-2.03-5.581 1.522-11.67 2.03-17.759 2.03-13.192 0-22.326-3.552-29.43-8.119-6.088 5.074-13.7 8.119-22.325 8.119-10.656 0-17.252-4.567-21.312-8.119-9.133 5.074-20.296 8.119-31.459 8.119s-21.311-3.045-28.922-8.119c-1.522 1.015-3.045 2.03-4.567 2.537-7.611 3.552-17.759 5.582-27.4 5.582-15.729 0-25.878-5.074-32.474-10.656-1.015 1.015-2.537 2.03-4.059 3.044-13.7 7.104-28.415 7.612-34.504 7.612-22.326 0-33.489-9.641-39.578-17.76-.507-.507-1.015-1.014-1.015-2.029-10.148 12.177-23.341 19.789-42.622 19.789-17.252 0-30.952-6.597-39.07-17.76-8.626-12.685-9.641-29.937-3.044-48.203 9.133-23.848 30.952-39.07 57.337-39.07h1.015v-2.03c-.508-8.119 5.074-15.73 13.192-18.774L99.68 1.522C102.217.507 104.754 0 107.291 0c7.611 0 14.715 4.059 18.267 11.163l10.148 20.804c3.045-.507 6.089-.507 9.133-.507 14.208 0 26.386 5.074 33.997 14.207 11.67-9.133 26.385-14.207 42.622-14.207 8.626 0 16.237 1.522 22.833 4.567 1.015.507 2.537 1.522 3.552 2.537 9.133-4.567 19.282-7.104 29.937-7.104 16.745 0 30.952 6.596 39.071 18.267 4.059 6.089 6.596 12.685 7.611 20.296 10.148-23.341 33.996-38.563 61.396-38.563 6.089 0 12.685 1.015 17.759 2.537 1.015-.507 2.03-.507 3.552-.507 4.059-1.015 8.119-1.015 12.178-1.015s8.626 0 12.685.507c3.552.507 6.596 1.522 9.133 3.552 2.537-2.03 5.582-3.552 9.134-3.552 4.059-.507 8.626-.507 13.192-.507s8.626 0 12.685 1.015c6.597 1.015 11.671 5.074 14.208 11.163 2.537 5.581 1.522 12.178-2.537 17.252z" fill="#113032"/><path d="M446.234 84.231c6.089 12.685 13.193 23.848 19.789 33.489v.507c-8.118.507-16.237.507-23.848 0-3.552-5.074-7.104-12.685-10.148-20.296l-15.73 20.296c-7.611.507-16.744.507-23.848 0l29.43-35.518c-5.074-9.133-10.148-18.774-13.193-32.474a149.37 149.37 0 0 1 21.311 0c2.03 6.596 4.059 13.7 6.596 20.296l15.73-20.296c7.104-1.015 15.222-1.015 21.819 0l-27.908 33.996zM116.419 41.609c2.03.507 3.552-.507 2.537-2.537l-9.64-19.789c-.508-1.522-2.537-1.522-3.552-1.015l-24.356 9.133c-2.03.507-2.03 2.537 0 3.044l7.611 2.03c-6.089 13.193-13.193 33.489-19.282 46.174-6.596 14.207-10.148 23.848-21.311 23.848s-13.193-8.626-8.118-21.311c5.581-14.715 14.715-18.774 25.37-15.73 3.044-4.059 5.074-10.148 6.089-15.73-3.044-1.015-6.596-1.015-9.641-1.015-17.252 0-33.996 8.626-40.593 27.4-9.641 23.848-1.522 42.622 24.863 42.622 19.282 0 29.937-8.625 42.622-35.518 7.104-14.715 12.686-29.43 19.789-43.637l7.611 2.03zM167.16 74.59c-4.567 12.178-19.281 17.252-47.189 16.745 0 8.118 5.582 11.67 15.73 11.67 7.104 0 14.715-1.522 19.789-4.567 1.522 5.074 1.522 9.641.507 14.208-8.626 4.566-18.774 5.581-26.385 5.581-28.922 0-32.981-21.818-26.893-38.563 5.582-16.237 20.804-30.952 41.608-30.952 19.789.507 27.907 13.193 22.833 25.878zm-25.878-11.163c-8.118 0-14.207 5.074-17.759 13.7 17.252 0 23.341-2.537 24.863-6.596 1.015-3.044 0-7.104-7.104-7.104zm79.156 2.03c3.552 0 7.104.507 9.133 2.03 3.552-5.074 6.089-10.148 6.089-15.222-3.044-1.522-8.626-2.537-15.222-2.537-22.326 0-40.085 13.193-46.682 31.459-6.088 17.252-1.522 38.563 26.893 38.563 7.611 0 15.222-1.522 20.296-4.059 1.523-5.074 2.03-10.148.508-15.222-3.552 1.522-8.626 3.044-14.208 3.044-14.207 0-15.729-10.655-12.685-19.789 3.552-10.656 12.178-18.267 25.878-18.267zm98.944 29.937c-8.626 0-13.192 5.581-15.222 10.655-2.029 6.089.508 13.193 10.148 13.193 8.119 0 13.193-5.074 15.223-10.148 2.029-6.597 0-13.7-10.149-13.7zm-14.714-6.089c-7.104 18.774-23.849 29.429-43.13 29.429-25.878 0-33.489-20.296-26.893-39.577 6.089-17.252 21.819-29.937 42.623-29.937 26.385 0 34.503 19.789 27.4 40.085zm-29.937-24.356c-9.641 0-16.238 8.626-18.775 17.252-3.551 10.656-1.522 21.311 9.134 21.311 9.133 0 15.729-8.118 18.774-16.744 3.044-10.655 2.029-21.818-9.133-21.818zm97.929 37.548c-14.207 0-15.729-10.655-12.685-19.788 3.552-9.641 12.178-17.252 25.878-17.252 3.552 0 7.103.507 9.133 2.03 3.552-5.074 6.089-10.148 6.089-15.222-3.044-1.522-8.626-2.537-15.222-2.537-22.326 0-40.085 13.193-46.682 31.459-6.089 17.252-1.522 38.563 26.893 38.563 7.611 0 15.222-1.522 20.296-4.059 1.522-5.074 2.03-10.148.508-15.222-3.552.507-8.626 2.029-14.208 2.029z" fill="#02f67c"/></svg>
